libs/ui/packages/crypto-icons/src/svg/TNT.svg

<svg width="24" height="24" viewBox="0 0 24 24" fill="none">
<path d="M10.4175 15.7522L10.536 18.375C10.536 18.375 11.9422 18.1365 13.407 18.375L13.524 15.7522H10.4175ZM8.7195 13.725C8.7195 13.725 12.8212 13.3672 15.2235 13.725L15.4575 10.8637C13.1759 10.6868 10.8841 10.6868 8.6025 10.8637L8.7195 13.725ZM19.5 6.33295C19.5 6.33295 11.6483 4.66345 4.5 6.4522L5.02725 9.73045L5.67225 8.4787C5.67225 8.4787 12.4103 7.46545 18.4447 8.4787L19.0312 9.7312L19.5 6.33295Z" fill="#FF4081"/>
</svg>

<svg width="24" height="24" viewBox="0 0 24 24" fill="none"><path fill="#ff4081" d="m10.418 15.752.118 2.623s1.406-.238 2.871 0l.117-2.623zM8.72 13.725s4.101-.358 6.503 0l.234-2.861a44 44 0 0 0-6.855 0zM19.5 6.333s-7.852-1.67-15 .12l.527 3.277.645-1.251s6.738-1.014 12.773 0l.586 1.252z"/></svg>
